X: 42229
T: Ways Of The World, The
R: reel
M: 4/4
K: Amajor
[A,2E2]|:[A,2E2] A2 ABcA|BcBA GABG|[A,2 E2] A2 ABcA|BcBG A2 [A,2 E2]|
[A,2 E2] A2 ABcA|BcBA GABc|d3 c dfed|c2 A2-A2 [A,2 E2]:|
|:[A,2 E2] a2-abaf|=g2 [d2 g2][d2 g2] ef|=gfga bage|=g d3 e2 [A,2E2]|
[A,2 E2] a2-abaf|=g2 [d2 g2][d2 g2] ef|=gage dfed|1 c2 A2-A2 [A,2E2]:|2 c2 A2-A2 e2||
|:e4- efed|BdBA GABc|d3 c dfed|1 c2 A2-A2 e2-:|2 c2 A2-A4||

